brandFactory_export/2.Regular/Emergencia cruz circulo salud_2Regular.svg

<?xml version="1.0" encoding="UTF-8"?>
<svg width="24px" height="24px" viewBox="0 0 24 24" version="1.1" xmlns="http://www.w3.org/2000/svg" xmlns:xlink="http://www.w3.org/1999/xlink">
    <title>2.Regular/Emergencia cruz circulo salud_2Regular</title>
    <g id="Symbols" stroke="none" stroke-width="1" fill="none" fill-rule="evenodd">
        <g id="2.Regular/Emergencia-cruz-circulo-salud_2Regular" fill="#5CB615" fill-rule="nonzero">
            <path d="M12.3226891,22.1411765 C15.2773109,22.087395 22.1445378,20.9747899 22.1445378,11.8453782 C22.1445378,2.71260504 15.2369748,1.55966387 12.2689076,1.48907563 C12.0033613,1.48235294 11.6941176,1.47563025 11.3983193,1.47563025 L11.1966387,1.4789916 C8.27563025,1.50252101 1.47563025,2.56134454 1.47563025,11.7747899 C1.47563025,21.0084034 8.3394958,22.1042017 11.2907563,22.1445378 C11.4084034,22.1478992 11.5327731,22.1478992 11.6537815,22.1478992 C11.8890756,22.1478992 12.1210084,22.1445378 12.3226891,22.1411765 Z M12.3058824,0.0134453782 C14.6184874,0.0672268908 23.6235294,0.981512605 23.6235294,11.8453782 C23.6235294,22.7294118 14.6084034,23.5764706 12.3529412,23.6168067 C12.1411765,23.6235294 11.8991597,23.6235294 11.6571429,23.6235294 C11.5294118,23.6235294 11.3983193,23.6235294 11.2739496,23.6201681 C8.90084034,23.5865546 0.00336134454,22.7294118 0.00336134454,11.7747899 C0.00336134454,0.83697479 8.82016807,0.0235294118 11.189916,0.00336134454 C11.2605042,0.00336134454 11.3277311,0 11.4016807,0 C11.707563,0 12.0302521,0.00672268908 12.3058824,0.0134453782 Z M18.1310924,13.5361345 C18.2991597,13.5361345 18.4369748,13.4117647 18.4537815,13.3579832 L18.4504202,10.292437 C18.4302521,10.2352941 18.292437,10.1176471 18.1310924,10.1176471 L14.2655462,10.1176471 C13.8588235,10.1176471 13.5260504,9.78823529 13.5260504,9.37815126 L13.5260504,5.52268908 C13.5260504,5.35462185 13.4016807,5.21680672 13.3478992,5.2 L10.2789916,5.20336134 C10.2352941,5.21680672 10.1142857,5.35462185 10.1142857,5.52268908 L10.1142857,9.38823529 C10.1142857,9.79495798 9.78487395,10.1277311 9.37478992,10.1277311 L5.5092437,10.1277311 C5.32773109,10.1277311 5.20672269,10.2521008 5.19663866,10.2957983 L5.19663866,13.3747899 C5.2,13.4151261 5.3210084,13.5394958 5.5092437,13.5394958 L9.37478992,13.5394958 C9.78151261,13.5394958 10.1142857,13.8689076 10.1142857,14.2789916 L10.1142857,18.1445378 C10.1142857,18.3260504 10.2386555,18.4470588 10.2823529,18.4537815 L13.3714286,18.4537815 C13.4117647,18.4436975 13.5361345,18.3260504 13.5361345,18.1445378 L13.5260504,14.2823529 C13.5260504,14.087395 13.6033613,13.8991597 13.7411765,13.7613445 C13.8789916,13.6201681 14.0672269,13.5428571 14.2655462,13.5428571 L18.1310924,13.5428571 L18.1310924,13.5361345 Z M18.1310924,8.64201681 C19.0890756,8.64201681 19.9294118,9.40840336 19.9294118,10.2823529 L19.9294118,13.3747899 C19.9294118,14.2487395 19.0890756,15.0151261 18.1310924,15.0151261 L15.005042,15.0151261 L15.0117647,18.1378151 C15.0117647,19.1092437 14.2588235,19.9260504 13.3714286,19.9260504 L10.2789916,19.9260504 C9.38823529,19.9260504 8.63865546,19.1092437 8.63865546,18.1411765 L8.63865546,15.0151261 L5.51260504,15.0151261 C4.54117647,15.0151261 3.72436975,14.2655462 3.72436975,13.3747899 L3.72436975,10.292437 C3.72436975,9.40504202 4.54117647,8.65210084 5.51260504,8.65210084 L8.63865546,8.65210084 L8.63865546,5.52605042 C8.63865546,4.5512605 9.39159664,3.73109244 10.2789916,3.73109244 L13.3613445,3.73109244 C14.2352941,3.73109244 15.0016807,4.57142857 15.0016807,5.52605042 L15.0016807,8.64201681 L18.1310924,8.64201681 Z" id="Emergencia-cruz-circulo-salud_2Regular"></path>
        </g>
    </g>
</svg>

<svg width="24" height="24" viewBox="0 0 24 24" xmlns="http://www.w3.org/2000/svg"><path d="M12.323 22.141c2.954-.054 9.822-1.166 9.822-10.296 0-9.132-6.908-10.285-9.876-10.356a35.129 35.129 0 00-.87-.013l-.202.003c-2.921.024-9.721 1.082-9.721 10.296 0 9.233 6.863 10.33 9.815 10.37.117.003.242.003.363.003.235 0 .467-.003.669-.007zM12.306.013c2.312.054 11.318.969 11.318 11.832 0 10.884-9.016 11.731-11.271 11.772-.212.007-.454.007-.696.007-.128 0-.259 0-.383-.004C8.9 23.587.004 22.73.004 11.775.003.837 8.82.024 11.19.003c.07 0 .138-.003.212-.003.306 0 .628.007.904.013zm5.825 13.523c.168 0 .306-.124.323-.178l-.004-3.066c-.02-.057-.158-.174-.319-.174h-3.865a.74.74 0 01-.74-.74V5.523c0-.168-.124-.306-.178-.323l-3.069.003c-.044.014-.165.152-.165.32v3.865a.74.74 0 01-.74.74H5.51c-.181 0-.302.124-.312.168v3.079c.003.04.124.164.312.164h3.866c.407 0 .74.33.74.74v3.866c0 .181.124.302.167.309h3.09c.04-.01.164-.128.164-.31l-.01-3.862a.738.738 0 01.74-.74h3.865v-.006zm0-4.894c.958 0 1.798.766 1.798 1.64v3.093c0 .874-.84 1.64-1.798 1.64h-3.126l.007 3.123c0 .971-.753 1.788-1.64 1.788h-3.093c-.89 0-1.64-.817-1.64-1.785v-3.126H5.513c-.972 0-1.789-.75-1.789-1.64v-3.083c0-.887.817-1.64 1.789-1.64h3.126V5.526c0-.975.753-1.795 1.64-1.795h3.082c.874 0 1.64.84 1.64 1.795v3.116h3.13z" fill="#5CB615" fill-rule="nonzero"/></svg>
